X: 3
T:Off Shew Goyes
M:6/8
L:1/8
B:The Calvert Collection  (1799) - Page 15
Z: AK/Fiddlers Companion
K:D
F2A G2B|ABA [F3d3]|F2A G2B|AGF ~E3|F2A G2B|
ABA [F2d2]e|f2d g2f|edc [F3d3]||(f/g/a)f d2f|(e/f/g)e c2e|
(f/g/a)f d2f|edc [F3d3]|(f/g/a)f d2f|(e/f/g)e c2e|d2g {f/g/}a2f|gec [F3d3]||
